X: 24
T: The Harriot
%R: reel, march
B: "Twenty Four Country Dances for the Year 1782", Thomas Skillern, ed. p.12 #2
F: http://www.vwml.org/browse/browse-collections-dance-tune-books/browse-skillerns1782#
Z: 2014 John Chambers <jc:trillian.mit.edu>
N: The 2nd strain has initial repeat but no final repeat; not fixed.
N: The first strain has only 7 bars.
M: 2/4
L: 1/8
K: A
|:\
aedc | B2Bc | B2E2 | aedc |\
B2cd | e2E2 | H[A4E4A,4] :||: [AA]AcA |\
B2B2 | [AA]AcA | B2E2 | [AA]AcA |\
B2a2 | gfe^d | "_Da Capo"e4 |]
%%begintext align
%%   Change sidex & back
%% again Cross over one
%% Couple Right and
%% Left at top
%%endtext
